X:637
T: Zhujian haojiao xiangdudu
N: C2160
O: China, Hubei Wufeng
S: I, 417]
R: Xiaodiao, Erge]
M: 2/4
L: 1/16
K: C
d3cd2g2 | e4d2e2 | A8 | c8 | d8 | d8
e2e2c2e2 | d4A4 | cdA2c4 | cdA2c4
e2d4A2 | G4A2A2 | d2d2c4 | A2A6
A2e2e2d2 | c4A4 | A2e2e2d2 | c4A4
A2c2d2e2 | A2c2d4 | d2e2e2d2 | c4A4
A3cd2e2 | A4d4 | d2e2e2d2 | c4A4
A2A2A2c2 | d6e2 | A2A2c4 | A8
A4A3d | c3dA4 | c3ed2c2 | A4c4

